!!!OTL: Lullaby
!!!COM: Brahms, Johannes
!!!ODT: unknown
!!!YOR: Real Book of Favorite Classics
!!!YOY: 1999
!!!AST: Classical theme
!!!YEC: Brian Luke, 2001
**kern	**harm
*k[b-e-a-]	*k[b-e-a-]
*M3/4	*M3/4
*E-:	*E-:
*>A	*>A
8g	.
8g	.
=1	=1
4.b-	I
8g	.
4g	.
=2	=2
2b-	.
8g	.
8b-	.
=3	=3
4ee-	.
4.dd	.
8cc	.
=4	=4
4cc	V7
4b-	.
8f	.
8g	.
=5	=5
4a-	.
4f	.
8f	.
8g	.
=6	=6
2a-	.
8f	.
8a-	.
=7	=7
8dd	.
8cc	.
4b-	.
4dd	.
=8	=8
2ee-	I;
*>B	*>B
8e-	.
8e-	.
=9	=9
2ee-	IV
8cc	.
8a-	.
=10	=10
2b-	I
8g	.
8e-	.
=11	=11
4a-	V7
4b-	.
4cc	.
=12	=12
8g	I
4.b-	.
8e-	.
8e-	.
=13	=13
2ee-	IV
8cc	.
8a-	.
=14	=14
2b-	I
8g	.
8e-	.
=15	=15
4a-	V7
4g	.
4f	.
=16	=16
2e-	I;
*-	*-
